assets/Medical symbol/Flat/medical_symbol_flat.svg

<svg width="32" height="32" viewBox="0 0 32 32" fill="none" xmlns="http://www.w3.org/2000/svg">
<path d="M15.9796 30C15.4099 30 14.9542 29.57 14.9335 29.02L14.8583 27H12.8081C12.5483 27 12.3385 26.7865 12.3385 26.5223V26.2986C12.3385 25.0077 13.3677 23.9506 14.6468 23.9506H14.7447L14.6909 22.5073H13.7175C11.1493 22.5073 9.19076 19.834 10.3699 17.0794C10.9295 15.7682 12.2785 14.9753 13.6875 14.9753H14.4103L14.3565 13.5319H11.6989C9.1308 13.5319 7.17222 10.8587 8.35137 8.10407C8.91096 6.79284 10.26 6 11.669 6H14.0759L14.0014 4C13.9599 2.91 14.861 2 16.0003 2C17.1292 2 18.0303 2.91 17.9992 4L17.9247 6H23.5303C23.7902 6 24 6.21346 24 6.47773C24 7.90077 22.8708 9.04937 21.4718 9.04937H17.8111L17.7573 10.4927H19.3034C21.8715 10.4927 23.8301 13.166 22.651 15.9206C22.0914 17.2318 20.7424 18.0247 19.3334 18.0247H17.4767L17.4229 19.4681H18.2342C20.8023 19.4681 22.7609 22.1413 21.5818 24.8959C21.0222 26.2072 19.6731 27 18.2642 27H17.1423L17.0671 29.02C17.0464 29.57 16.5803 30 16.021 30H15.9796ZM14.5776 19.4681L14.5239 18.0247H13.7175C13.3278 18.0247 13.008 18.35 13.008 18.7464C13.008 19.1428 13.3377 19.4681 13.7175 19.4681H14.5776ZM14.2433 10.4927L14.1895 9.04937H11.6989C11.3092 9.04937 10.9894 9.3848 10.9894 9.77106C10.9894 10.1573 11.3092 10.4826 11.6989 10.4927H14.2433ZM17.6441 13.5319L17.5903 14.9753H19.3034C19.6931 14.9753 20.0129 14.65 20.0129 14.2536C20.0129 13.8572 19.6831 13.5319 19.3034 13.5319H17.6441ZM17.3097 22.5073L17.2559 23.9506H18.2342C18.6139 23.9506 18.9437 23.6254 18.9437 23.2289C18.9437 22.8325 18.6139 22.5073 18.2342 22.5073H17.3097Z" fill="#00A6ED"/>
<path d="M22.0016 7.79004C21.7216 7.79004 21.5016 7.57004 21.5016 7.29004C21.5016 7.01004 21.7316 6.79004 22.0016 6.79004C22.2716 6.79004 22.5016 7.01004 22.5016 7.29004C22.5016 7.56004 22.2716 7.79004 22.0016 7.79004Z" fill="white"/>
</svg>

<svg xmlns="http://www.w3.org/2000/svg" width="32" height="32" fill="none"><path fill="#00A6ED" d="M15.98 30c-.57 0-1.026-.43-1.046-.98L14.857 27h-2.05a.473.473 0 0 1-.47-.478V26.3c0-1.291 1.03-2.348 2.309-2.348h.098l-.054-1.444h-.974c-2.568 0-4.526-2.673-3.347-5.428.56-1.31 1.909-2.104 3.318-2.104h.722l-.053-1.443h-2.658c-2.568 0-4.527-2.673-3.348-5.428C8.911 6.793 10.26 6 11.67 6h2.407L14 4c-.041-1.09.86-2 2-2 1.128 0 2.03.91 1.998 2l-.074 2h5.605c.26 0 .47.213.47.478 0 1.423-1.13 2.571-2.528 2.571h-3.66l-.055 1.444h1.546c2.569 0 4.527 2.673 3.348 5.428-.56 1.31-1.909 2.104-3.318 2.104h-1.856l-.054 1.443h.811c2.568 0 4.527 2.673 3.348 5.428-.56 1.311-1.909 2.104-3.318 2.104h-1.122l-.075 2.02c-.02.55-.487.98-1.046.98h-.041Zm-1.402-10.532-.054-1.443h-.806c-.39 0-.71.325-.71.721 0 .397.33.722.71.722h.86Zm-.335-8.975-.053-1.444h-2.491c-.39 0-.71.336-.71.722 0 .386.32.712.71.722h2.544Zm3.401 3.039-.054 1.443h1.713c.39 0 .71-.325.71-.721a.725.725 0 0 0-.71-.722h-1.659Zm-.334 8.975-.054 1.444h.978c.38 0 .71-.326.71-.722a.725.725 0 0 0-.71-.722h-.924Z"/><path fill="#fff" d="M22.002 7.79c-.28 0-.5-.22-.5-.5s.23-.5.5-.5.5.22.5.5c0 .27-.23.5-.5.5Z"/></svg>
